X: 51
T:Piper's Despair, The
M:C|
L:1/8
R:Reel
K:EDor
EFGA BAFA|BdAB dBAF|D2 (3FED ADFA|BdAB dBAF|!
EFGA BAFA|BdAB dBAF|D2FA dfaf|1gfed BeeB:|2gfed Bcdf|!
|:e2ge begf|efga bfaf|df~f2 af~f2|df~f2 afdf|!
e2ge begf|efga bfaf|~d3f ~a3f|1gfed Bcdf:|2gfed BeeB|]!
